static/img/kroki/66773602758c4540d52975eacf1542e8.svg

<?xml version="1.0" encoding="us-ascii" standalone="no"?><svg xmlns="http://www.w3.org/2000/svg" xmlns:xlink="http://www.w3.org/1999/xlink" contentStyleType="text/css" height="152px" preserveAspectRatio="none" style="width:173px;height:152px;" version="1.1" viewBox="0 0 173 152" width="173px" zoomAndPan="magnify"><defs/><g><!--class gcp_disk--><g id="elem_gcp_disk"><rect codeLine="22" fill="#3D176E" height="39.7891" id="gcp_disk" rx="2.5" ry="2.5" style="stroke:#000D19;stroke-width:0.5;" width="112" x="30.5" y="106.79"/><ellipse cx="45.5" cy="126.6845" fill="#ADD1B2" rx="11" ry="11" style="stroke:#181818;stroke-width:1.0;"/><path d="M48.4688,132.3252 Q47.8906,132.622 47.25,132.7627 Q46.6094,132.9189 45.9063,132.9189 Q43.4063,132.9189 42.0781,131.2783 Q40.7656,129.622 40.7656,126.497 Q40.7656,123.372 42.0781,121.7158 Q43.4063,120.0595 45.9063,120.0595 Q46.6094,120.0595 47.25,120.2158 Q47.9063,120.372 48.4688,120.6689 L48.4688,123.3877 Q47.8438,122.8095 47.25,122.5439 Q46.6563,122.2627 46.0313,122.2627 Q44.6875,122.2627 44,123.3408 Q43.3125,124.4033 43.3125,126.497 Q43.3125,128.5908 44,129.6689 Q44.6875,130.7314 46.0313,130.7314 Q46.6563,130.7314 47.25,130.4658 Q47.8438,130.1845 48.4688,129.6064 L48.4688,132.3252 Z " fill="#000000"/><text fill="#D9B8FF" font-family="Helvetica" font-size="17" lengthAdjust="spacing" textLength="70" x="64.5" y="132.5698">gcp_disk</text></g><!--class gcp_operation--><g id="elem_gcp_operation"><rect codeLine="24" fill="#3D176E" height="39.7891" id="gcp_operation" rx="2.5" ry="2.5" style="stroke:#000D19;stroke-width:0.5;" width="159" x="7" y="7"/><ellipse cx="22" cy="26.8945" fill="#ADD1B2" rx="11" ry="11" style="stroke:#181818;stroke-width:1.0;"/><path d="M24.9688,32.5352 Q24.3906,32.832 23.75,32.9727 Q23.1094,33.1289 22.4063,33.1289 Q19.9063,33.1289 18.5781,31.4883 Q17.2656,29.832 17.2656,26.707 Q17.2656,23.582 18.5781,21.9258 Q19.9063,20.2695 22.4063,20.2695 Q23.1094,20.2695 23.75,20.4258 Q24.4063,20.582 24.9688,20.8789 L24.9688,23.5977 Q24.3438,23.0195 23.75,22.7539 Q23.1563,22.4727 22.5313,22.4727 Q21.1875,22.4727 20.5,23.5508 Q19.8125,24.6133 19.8125,26.707 Q19.8125,28.8008 20.5,29.8789 Q21.1875,30.9414 22.5313,30.9414 Q23.1563,30.9414 23.75,30.6758 Q24.3438,30.3945 24.9688,29.8164 L24.9688,32.5352 Z " fill="#000000"/><text fill="#D9B8FF" font-family="Helvetica" font-size="17" lengthAdjust="spacing" textLength="117" x="41" y="32.7798">gcp_operation</text></g><!--link gcp_operation to gcp_disk--><g id="link_gcp_operation_gcp_disk"><path codeLine="26" d="M86.5,47.22 C86.5,62.49 86.5,83.92 86.5,100.53 " fill="none" id="gcp_operation-to-gcp_disk" style="stroke:#1A83AF;stroke-width:2.0;"/><polygon fill="#1A83AF" points="86.5,105.41,90.5,96.41,86.5,100.41,82.5,96.41,86.5,105.41" style="stroke:#1A83AF;stroke-width:2.0;"/></g><!--SRC=[XP11IyD048Nl_HKBEHSIWoQz235Gz5B4UXEHINOsMPBiXjcffOh_NTjgsIQslRxtpSnxKsk90hkUDwB3ha1o4zTeqmD19p8YkyvjQqa4Ie6Aaw4vjuOl0WleKDnZ-uwiInWIpxKk6uFEYIlFkeEogSYkZDolPmBZVYmqx55v2yvbpAIB5QCNHiwALAaXELmQn39ARd24MP98lqWOXZAQ3P6BfyxsFX1B_O4Yyf-si8oZcACJE-fioYtXXHmL_VDFPdm4ARMfnBMdFUqpaK4wqfSrIBlUqWfQvvznZ8IMDptcerOuIwLA_eKVJi7bzdEYAlitgLqZFYTVdcHx961jpKu_LgOlGPIbSJP_dTuUvhy1]--></g></svg>

<svg xmlns="http://www.w3.org/2000/svg" width="173" height="152" preserveAspectRatio="none" style="width:173px;height:152px"><rect width="112" height="39.789" x="30.5" y="106.79" fill="#3D176E" rx="2.5" ry="2.5" style="stroke:#000d19;stroke-width:.5"/><circle cx="45.5" cy="126.684" r="11" fill="#ADD1B2" style="stroke:#181818;stroke-width:1"/><path d="M48.469 132.325q-.578.297-1.219.438-.64.156-1.344.156-2.5 0-3.828-1.64-1.312-1.657-1.312-4.782t1.312-4.781q1.328-1.656 3.828-1.656.703 0 1.344.156.656.156 1.219.453v2.719q-.625-.579-1.219-.844-.594-.281-1.219-.281-1.343 0-2.031 1.078-.688 1.062-.688 3.156 0 2.094.688 3.172.688 1.062 2.031 1.062.625 0 1.219-.265.594-.281 1.219-.86v2.72Z"/><text x="64.5" y="132.57" fill="#D9B8FF" font-family="Helvetica" font-size="17" textLength="70">gcp_disk</text><rect width="159" height="39.789" x="7" y="7" fill="#3D176E" rx="2.5" ry="2.5" style="stroke:#000d19;stroke-width:.5"/><circle cx="22" cy="26.895" r="11" fill="#ADD1B2" style="stroke:#181818;stroke-width:1"/><path d="M24.969 32.535q-.578.297-1.219.438-.64.156-1.344.156-2.5 0-3.828-1.64-1.312-1.657-1.312-4.782t1.312-4.781q1.328-1.656 3.828-1.656.703 0 1.344.156.656.156 1.219.453v2.719q-.625-.578-1.219-.844-.594-.281-1.219-.281-1.343 0-2.031 1.078-.688 1.062-.688 3.156 0 2.094.688 3.172.688 1.062 2.031 1.062.625 0 1.219-.265.594-.281 1.219-.86v2.72Z"/><text x="41" y="32.78" fill="#D9B8FF" font-family="Helvetica" font-size="17" textLength="117">gcp_operation</text><path fill="none" d="M86.5 47.22v53.31" style="stroke:#1a83af;stroke-width:2"/><path fill="#1A83AF" d="m86.5 105.41 4-9-4 4-4-4 4 9z" style="stroke:#1a83af;stroke-width:2"/></svg>
